src/topics/icons/appsignal.svg

<svg height="169" preserveAspectRatio="xMidYMid" viewBox="0 0 256 169" width="256" xmlns="http://www.w3.org/2000/svg"><path d="m.62683883 33.4314044v134.9792956h168.41070017z" fill="#4988a2"/><path d="m120.353056 168.4107 135.188242-155.2470845v155.2470845z" fill="#7a4198"/><path d="m.83578511 168.4107 67.07175519-168.4107 100.5031597 168.4107z" fill="#478b60"/><path d="m14.4172932 168.4107 57.2512801-77.9369618 68.5343787 55.1618178-19.849896 22.775144z" fill="#135f66"/><path d="m14.4172932 168.4107h-13.58150809l40.74452419-102.17473 30.088264 24.2377682z" fill="#2b7b82"/><path d="m140.202952 145.635556-19.849896 22.775144h48.26659z" fill="#194a7f"/><path d="m148.76975 135.815081-8.566798 9.820475 28.416694 22.775144z" fill="#5e2b7c"/><path d="m255.541298 168.4107h-86.921652l-19.849896-32.595619 50.564999-58.0870657z" fill="#7a2980"/><path d="m71.6685733 90.4737382 28.2077474-36.9834911 48.8934293 82.3248339-8.566798 9.820475z" fill="#456630"/><path d="m99.8763207 53.4902471 14.4172933-20.0588427 33.640351 47.2218588 33.013511-32.3866731 18.387273 29.4614252-50.564999 58.0870657z" fill="#e77a45"/></svg>

<?xml version="1.0" encoding="UTF-8" standalone="no"?>
<svg width="256px" height="169px" viewBox="0 0 256 169" version="1.1" xmlns="http://www.w3.org/2000/svg" xmlns:xlink="http://www.w3.org/1999/xlink" preserveAspectRatio="xMidYMid">
	<g>
		<path d="M0.626838833,33.4314044 L0.626838833,168.4107 L169.037539,168.4107 L0.626838833,33.4314044 Z" fill="#4988A2"></path>
		<path d="M120.353056,168.4107 L255.541298,13.1636155 L255.541298,168.4107 L120.353056,168.4107 Z" fill="#7A4198"></path>
		<path d="M0.835785111,168.4107 L67.9075403,0 L168.4107,168.4107 L0.835785111,168.4107 Z" fill="#478B60"></path>
		<path d="M14.4172932,168.4107 L71.6685733,90.4737382 L140.202952,145.635556 L120.353056,168.4107 L14.4172932,168.4107 Z" fill="#135F66"></path>
		<path d="M14.4172932,168.4107 L0.835785111,168.4107 L41.5803093,66.23597 L71.6685733,90.4737382 L14.4172932,168.4107 Z" fill="#2B7B82"></path>
		<path d="M140.202952,145.635556 L120.353056,168.4107 L168.619646,168.4107 L140.202952,145.635556 Z" fill="#194A7F"></path>
		<path d="M148.76975,135.815081 L140.202952,145.635556 L168.619646,168.4107 L148.76975,135.815081" fill="#5E2B7C"></path>
		<path d="M255.541298,168.4107 L168.619646,168.4107 L148.76975,135.815081 L199.334749,77.7280153 L255.541298,168.4107 Z" fill="#7A2980"></path>
		<path d="M71.6685733,90.4737382 L99.8763207,53.4902471 L148.76975,135.815081 L140.202952,145.635556 L71.6685733,90.4737382 Z" fill="#456630"></path>
		<path d="M99.8763207,53.4902471 L114.293614,33.4314044 L147.933965,80.6532632 L180.947476,48.2665901 L199.334749,77.7280153 L148.76975,135.815081 L99.8763207,53.4902471 Z" fill="#E77A45"></path>
	</g>
</svg>
